X: 1
T: Dangling Braid, The
M: 6/8
L: 1/8
R: jig
K: Gmaj
|:dcA A2G | A2G ABc | dcA A2G | ABc d2z |
dcA A2G | A2G ABc | dcA GAB | dfe d2z :|  
|:fef g2f | gfg a3 | bag fga | bag a2f |
gfe fed | edc e2d | edc Aee | fed d2z :|
